X:1
T:Title
%%score { ( 1 3 5 ) | ( 2 4 ) }
L:1/8
M:4/4
K:E
V:1 treble nm="Grand Piano"
V:3 treble 
V:5 treble 
V:2 bass 
V:4 bass 
V:1
 z4 z2[Q:1/4=106] B,2 | E2 B,2 G2 E2 | B4 z4 | [EA]4 z4 |[M:3/4] [B,EG]6 |[M:1/4] G2 | %6
[M:4/4] E2 C2 G2 E2 | [^Ec]4 [Ec]2 [EB]2 | z2 z ^A A2 A2 |[M:3/4] [DB]6 |[M:1/4][K:bass] z C | %11
[M:4/4] [F,B,D]2[K:treble] [B,CE]2 [B,DF]2 [B,EG]2 | [DGB]4 [DFA]2 DE | %13
 [B,F]2 [B,EG]2 [B,DA]2 [DAc]2 |[M:3/4] [Ac]4 [GB]2 |[M:1/4] [GB][FA] | %16
[M:4/4] [EG]2 [GB]2 [Be]2 [Bd]2 | [Bd]2 c2 B2 A2 | G2 BA [B,EG]2 [A,DF]2 |[M:3/4] [G,E]6 | %20
[M:1/4] [EGB]2 |[M:4/4] B3 B B2 B2 | B2 [GB]2 z2 B2 | c c3 [^Ae]3 [Ae] |[M:3/4] [Bd]6 | %25
[M:1/4] [Ad]2 |[M:4/4] [Ge]2 [Ge]2 [EB]2 [B,EG]2 | [CEF]2 [Ec]4 [Ec]2 | [Dc]3 [DB] [DB]2 D2 | %29
[M:3/4] E6 |] %30
V:2
 z4 z2 B,,2 | E,2 B,,2 G,2 E,2 | F,2 A,2 [E,G,E]2 [E,B,E]2 | A,,2 z E B,,2 B,,2 |[M:3/4] E,6 | %5
[M:1/4] G,2 |[M:4/4] E,2 C,2 G,2 E,2 | [C,G,]4 [C,G,]2 [C,C]2 | [F,C]2 z F [F,CE]2 [F,E]2 | %9
[M:3/4] [B,,F,]6 |[M:1/4] D, z |[M:4/4] B,,2 B,,2 B,,2 B,,2 | B,,4 B,,2 B,,C, | D,2 E,2 F,2 B,,2 | %14
[M:3/4] [E,E]6 |[M:1/4] [E,B,]2 |[M:4/4] [E,B,]2 [E,E]2 [G,E]2 [G,B,]2 | z2 A2 [A,EG]2 [A,CE]2 | %18
 [B,E]2 GF[K:bass] B,,2 B,,2 |[M:3/4] E,6 |[M:1/4] E,G, | %21
[M:4/4][K:treble] [B,DF]3 [A,CF][K:bass] [G,B,E]2 [F,A,D]2 | [E,G,E]2 [E,B,]2 z2[K:treble] [G,E]2 | %23
 [A,EA] [A,EA]3[K:bass] [F,E]3 [F,C] |[M:3/4] B,2 A,2 G,2 |[M:1/4] [F,B,]2 | %26
[M:4/4] [E,B,]2 [E,B,]2 [E,G,]2 E,2 | A,,2 [A,,A,]4 [A,,A,]2 | %28
 [B,,A,]3 [B,,A,] [B,,A,]2 [B,,A,B,]2 |[M:3/4] [E,G,B,]6 |] %30
V:3
 x8 | x8 | D2 F2 B2 G2 | C2 z A [B,DA]2 [B,DA]2 |[M:3/4] x6 |[M:1/4] x2 |[M:4/4] x8 | x8 | %8
 [F^A]4 z4 |[M:3/4] x6 |[M:1/4][K:bass] B,2 |[M:4/4] x2[K:treble] x6 | z4 z2 B,2 | x8 |[M:3/4] x6 | %15
[M:1/4] x2 |[M:4/4] x8 | x8 | x8 |[M:3/4] x6 |[M:1/4] x2 |[M:4/4] x8 | x8 | x8 |[M:3/4] z2 C2 B,2 | %25
[M:1/4] x2 |[M:4/4] x8 | x8 | x8 |[M:3/4] x6 |] %30
V:4
 x8 | x8 | B,,4 z4 | z2 A,,2 z4 |[M:3/4] x6 |[M:1/4] x2 |[M:4/4] x8 | x8 | z2 F,2 z4 |[M:3/4] x6 | %10
[M:1/4] B,,-[B,,E,] |[M:4/4] x8 | x8 | x8 |[M:3/4] x6 |[M:1/4] x2 |[M:4/4] x8 | [A,E]4 z4 | %18
 z2 B,2[K:bass] z4 |[M:3/4] x6 |[M:1/4] x2 |[M:4/4][K:treble] x4[K:bass] x4 | x6[K:treble] x2 | %23
 x4[K:bass] x4 |[M:3/4] x6 |[M:1/4] x2 |[M:4/4] x8 | x8 | x8 |[M:3/4] x6 |] %30
V:5
 x8 | x8 | x8 | z2 C2 z4 |[M:3/4] x6 |[M:1/4] x2 |[M:4/4] x8 | x8 | z2 C2 z4 |[M:3/4] x6 | %10
[M:1/4][K:bass] x2 |[M:4/4] x2[K:treble] x6 | x8 | x8 |[M:3/4] x6 |[M:1/4] x2 |[M:4/4] x8 | x8 | %18
 x8 |[M:3/4] x6 |[M:1/4] x2 |[M:4/4] x8 | x8 | x8 |[M:3/4] x6 |[M:1/4] x2 |[M:4/4] x8 | x8 | x8 | %29
[M:3/4] x6 |] %30

